!!!SOCIAL_FUNCTION:	songs with hunting dance
!!!PDT:	1956
!!!OTL: No_55_Cow_Creek_Hunting_Dance_Song_(v).krn
!!!LANG: Non-Tone
!!!LING_GROUP: Muskogean
!!!REG: Florida
**kern
*staff1
=1-
*clefF4
*k[b-e-a-]
*M3/4
2r
8r
8E-\
=2
8B-\L
8B-\J
8B-\L
8G\J
8E-\L
8E-\J
=3
2B-\
8r
8E-\
=4||
*M4/4
8B-\L
8B-\
8B-\
8G\J
8E-\L
8E-\J
4B-\
=5!|:
*M2/4
4c\
8c\L
8B-\J
=6||
*M3/4
8A-\L
8G\J
8F\L
8F\J
4F\
=7||
*M2/4
4A-\
8A-\L
8c\J
=8||
*M3/4
8A-\L
8G\J
8F\L
8F\J
8.F\L
16F\Jk
=9||
*M2/4
4c\
8c\L
8B-\J
=10||
*M3/4
8A-\L
8G\J
8F\L
8F\J
4F\
=11||
*M5/8
8.B-\L
16B-\K
8B-\
8G\
8E-\J
=12
2B-\
8r
=13
8.B-\L
16B-\K
8B-\
8G\
8E-\J
=14||
*M2/4
2B-\
=15
8.c\L
16c\Jk
8c\L
8B-\J
=16:|!
[2c\
=17
4c\]
8B-\L
16G\Jk
16r
=18
8c\
8r
8B-\
8r
==
*-
